X: 37859
T: Sorrow's Comfort
R: polka
M: 2/4
K: Gmajor
d/B/B/B/ A/B/B/B/|d/B/B/B/ B/A/G|d/B/B/B/ A/B/B/B/|cd gf|
d/B/B/B/ A/B/B/B/|d/B/B/B/ B/A/G|EG DG|A/G/F G2:|
|:EG DG|A/G/F ED|EG DG|A/G/F G2|
EG DG|A/G/F ED|EG DG|A/G/F G2:|

